public/svg/about-man.svg

<svg width="74" height="74" viewBox="0 0 74 74" fill="none" xmlns="http://www.w3.org/2000/svg">
<path d="M23.4102 35.0588C26.5575 35.0588 29.118 32.4983 29.118 29.351C29.118 28.4729 28.4062 27.7611 27.5281 27.7611C26.6501 27.7611 25.9383 28.4729 25.9383 29.351C25.9383 30.745 24.8042 31.8791 23.4102 31.8791C22.0162 31.8791 20.882 30.745 20.882 29.351C20.882 28.4729 20.1702 27.7611 19.2922 27.7611C18.4141 27.7611 17.7023 28.4729 17.7023 29.351C17.7022 32.4983 20.2628 35.0588 23.4102 35.0588Z" fill="#21558A"/>
<path d="M66.6358 40.7225H51.9779C49.3866 40.7225 47.2785 42.8307 47.2785 45.4218V45.6896L44.6367 51.3253C43.4532 49.1928 41.8255 47.3029 39.8713 45.8246C37.1821 43.7904 34.0361 42.6004 30.7019 42.3445V39.469C33.7359 37.2899 35.7605 33.7901 35.927 29.8184C37.9185 29.1556 39.3586 27.274 39.3586 25.0629C39.3586 22.8556 37.924 20.9771 35.9381 20.3111V15.0636C35.9381 11.7962 33.2798 9.13783 30.0123 9.13783H21.8842C20.2361 9.13783 18.8953 7.79702 18.8953 6.14893C18.8953 5.2709 18.1835 4.55908 17.3054 4.55908H15.4841C11.1932 4.55908 7.7025 8.0498 7.7025 12.3406C7.7025 14.911 8.95516 17.1943 10.8822 18.6121V20.3113C8.89633 20.9774 7.46171 22.8557 7.46171 25.063C7.46171 27.2743 8.90182 29.1557 10.8933 29.8185C11.0598 33.7904 13.0844 37.2902 16.1184 39.4692V42.3455C7.11296 43.0469 0 50.5989 0 59.7811V67.8512C0 68.7292 0.711816 69.441 1.58984 69.441H47.9185C48.5352 69.441 49.0963 69.0843 49.358 68.526L57.4809 51.197H60.8835C64.932 51.197 68.2257 47.9033 68.2257 43.8548V42.3124C68.2257 41.4344 67.514 40.7225 66.6358 40.7225ZM15.4839 7.73848H15.9232C16.6262 10.3718 19.0322 12.3172 21.8841 12.3172H30.0122C31.5265 12.3172 32.7583 13.5491 32.7583 15.0633V16.9422H15.4839C12.9464 16.9422 10.882 14.8777 10.882 12.3404C10.882 9.80297 12.9465 7.73848 15.4839 7.73848ZM14.0617 29.2872V28.4832C14.0617 27.6052 13.3499 26.8934 12.4719 26.8934C11.4625 26.8934 10.6413 26.0721 10.6413 25.0627C10.6413 24.0533 11.4625 23.2321 12.4719 23.2321C13.3499 23.2321 14.0617 22.5203 14.0617 21.6422V19.9917C14.5229 20.0773 14.9983 20.1219 15.4839 20.1219H32.7584V21.6422C32.7584 22.5203 33.4703 23.2321 34.3483 23.2321C35.3577 23.2321 36.1789 24.0533 36.1789 25.0627C36.1789 26.0721 35.3577 26.8934 34.3483 26.8934C33.4703 26.8934 32.7584 27.6052 32.7584 28.4832V29.2872C32.7584 34.4419 28.5647 38.6355 23.4102 38.6355C18.2556 38.6355 14.0617 34.4419 14.0617 29.2872ZM23.4102 41.8152C24.8498 41.8152 26.2337 41.5711 27.5224 41.122V43.9817C27.5224 46.2491 25.6777 48.0939 23.4102 48.0939C21.1426 48.0939 19.298 46.2493 19.298 43.9817V41.122C20.5866 41.5711 21.9703 41.8152 23.4102 41.8152ZM46.9079 66.2615H38.4244V59.7813C38.4244 58.9033 37.7125 58.1914 36.8345 58.1914C35.9565 58.1914 35.2447 58.9033 35.2447 59.7813V66.2615H11.5759V59.7813C11.5759 58.9033 10.8641 58.1914 9.9861 58.1914C9.10807 58.1914 8.39625 58.9033 8.39625 59.7813V66.2615H3.17969V59.7813C3.17969 52.2976 8.95458 46.1373 16.282 45.5224C16.9909 48.8059 19.9177 51.2738 23.41 51.2738C26.9028 51.2738 29.8297 48.8054 30.5382 45.5217C33.2342 45.7446 35.7768 46.7148 37.9529 48.3607C40.3718 50.1905 42.1793 52.789 43.0424 55.6779C43.2312 56.3098 43.7905 56.7594 44.4483 56.8081C45.1043 56.8566 45.7254 56.4945 46.0053 55.8974L49.633 48.1582L54.3559 50.372L46.9079 66.2615ZM60.8836 48.0173H56.8245L50.5033 45.0543C50.668 44.3933 51.2667 43.9022 51.9779 43.9022H65.0459C65.0203 46.1756 63.1629 48.0173 60.8836 48.0173Z" fill="#21558A"/>
<path d="M65.8925 19.8106L62.0136 18.616L59.679 15.296C59.3813 14.8726 58.8961 14.6207 58.3785 14.6207C57.8609 14.6207 57.3757 14.8726 57.078 15.296L54.7432 18.616L50.8643 19.8106C50.3697 19.9629 49.9801 20.3465 49.8202 20.8386C49.6602 21.3309 49.75 21.8701 50.0606 22.2841L52.4965 25.5304L52.4339 29.5887C52.426 30.1062 52.6704 30.5952 53.0891 30.8994C53.3644 31.0993 53.6922 31.2031 54.0238 31.2031C54.1965 31.2031 54.3704 31.1749 54.5382 31.1175L58.3785 29.804L62.2188 31.1175C62.7085 31.2852 63.2492 31.2037 63.6679 30.8994C64.0866 30.5953 64.331 30.1062 64.3231 29.5887L64.2603 25.5305L66.6964 22.2841C67.007 21.8701 67.0968 21.3307 66.9368 20.8386C66.7766 20.3463 66.3871 19.9629 65.8925 19.8106ZM61.3905 24.0572C61.1789 24.3392 61.0671 24.6834 61.0726 25.0359L61.1087 27.3773L58.8929 26.6194C58.5593 26.5052 58.1974 26.5052 57.8638 26.6194L55.648 27.3773L55.6841 25.0358C55.6896 24.6834 55.5778 24.339 55.3662 24.0572L53.9606 22.184L56.1987 21.4948C56.5356 21.391 56.8284 21.1783 57.0313 20.8899L58.3784 18.9743L59.7254 20.8899C59.9282 21.1783 60.2211 21.391 60.558 21.4948L62.7961 22.184L61.3905 24.0572Z" fill="black"/>
<path d="M68.0742 6.81605H67.0144V6.28894C67.0144 5.41091 66.3026 4.6991 65.4245 4.6991C64.5465 4.6991 63.8347 5.41091 63.8347 6.28894V6.81605H59.9682V6.28894C59.9682 5.41091 59.2564 4.6991 58.3783 4.6991C57.5003 4.6991 56.7885 5.41091 56.7885 6.28894V6.81605H52.922V6.28894C52.922 5.41091 52.2102 4.6991 51.3322 4.6991C50.4541 4.6991 49.7423 5.41091 49.7423 6.28894V6.81605H48.6825C45.415 6.81605 42.7567 9.47441 42.7567 12.7418V31.6368C42.7567 34.9042 45.415 37.5626 48.6825 37.5626H68.0742C71.3416 37.5626 74 34.9042 74 31.6368V12.7418C74 9.47427 71.3416 6.81605 68.0742 6.81605ZM70.8203 31.6368C70.8203 33.1511 69.5885 34.3829 68.0742 34.3829H48.6825C47.1682 34.3829 45.9364 33.1511 45.9364 31.6368V12.7418C45.9364 11.2276 47.1682 9.99573 48.6825 9.99573H49.7423V10.5228C49.7423 11.4009 50.4541 12.1127 51.3322 12.1127C52.2102 12.1127 52.922 11.4009 52.922 10.5228V9.99573H56.7885V10.5228C56.7885 11.4009 57.5003 12.1127 58.3783 12.1127C59.2564 12.1127 59.9682 11.4009 59.9682 10.5228V9.99573H63.8347V10.5228C63.8347 11.4009 64.5465 12.1127 65.4245 12.1127C66.3026 12.1127 67.0144 11.4009 67.0144 10.5228V9.99573H68.0742C69.5885 9.99573 70.8203 11.2276 70.8203 12.7418V31.6368Z" fill="black"/>
</svg>

<svg xmlns="http://www.w3.org/2000/svg" width="74" height="74" fill="none"><path fill="#21558A" d="M23.41 35.059a5.714 5.714 0 0 0 5.708-5.708 1.59 1.59 0 1 0-3.18 0 2.53 2.53 0 0 1-2.528 2.528 2.53 2.53 0 0 1-2.528-2.528 1.59 1.59 0 1 0-3.18 0 5.714 5.714 0 0 0 5.708 5.708"/><path fill="#21558A" d="M66.636 40.723H51.978a4.705 4.705 0 0 0-4.7 4.699v.268l-2.641 5.635a17.7 17.7 0 0 0-4.766-5.5 17.3 17.3 0 0 0-9.17-3.48v-2.876a12.53 12.53 0 0 0 5.226-9.65 5.02 5.02 0 0 0 3.432-4.756 5.02 5.02 0 0 0-3.42-4.752v-5.247a5.933 5.933 0 0 0-5.927-5.926h-8.128a2.99 2.99 0 0 1-2.989-2.99 1.59 1.59 0 0 0-1.59-1.589h-1.82c-4.292 0-7.782 3.49-7.782 7.782a7.78 7.78 0 0 0 3.18 6.271v1.7a5.02 5.02 0 0 0-3.421 4.751 5.02 5.02 0 0 0 3.431 4.756 12.53 12.53 0 0 0 5.225 9.65v2.877C7.113 43.046 0 50.599 0 59.78v8.07c0 .878.712 1.59 1.59 1.59h46.329a1.59 1.59 0 0 0 1.439-.915l8.123-17.329h3.402c4.049 0 7.343-3.294 7.343-7.342v-1.543a1.59 1.59 0 0 0-1.59-1.59M15.484 7.737h.44a6.18 6.18 0 0 0 5.96 4.58h8.128a2.75 2.75 0 0 1 2.746 2.745v1.88H15.484a4.607 4.607 0 0 1-4.602-4.603 4.607 4.607 0 0 1 4.602-4.602m-1.422 21.55v-.805a1.59 1.59 0 0 0-1.59-1.59c-1.01 0-1.83-.82-1.83-1.83s.82-1.83 1.83-1.83a1.59 1.59 0 0 0 1.59-1.59v-1.651q.691.129 1.422.13h17.274v1.52c0 .878.712 1.59 1.59 1.59 1.01 0 1.83.821 1.83 1.83s-.82 1.831-1.83 1.831a1.59 1.59 0 0 0-1.59 1.59v.804c0 5.155-4.193 9.349-9.348 9.349-5.154 0-9.348-4.194-9.348-9.349m9.348 12.527c1.44 0 2.824-.244 4.112-.693v2.86a4.117 4.117 0 0 1-4.112 4.112 4.117 4.117 0 0 1-4.112-4.112v-2.86c1.289.45 2.672.693 4.112.693m23.498 24.447h-8.484v-6.48a1.59 1.59 0 0 0-3.18 0v6.48H11.577v-6.48a1.59 1.59 0 0 0-3.18 0v6.48H3.18v-6.48c0-7.484 5.775-13.645 13.102-14.26.709 3.284 3.636 5.752 7.128 5.752s6.42-2.469 7.128-5.752a14.16 14.16 0 0 1 7.415 2.839 14.42 14.42 0 0 1 5.09 7.317 1.59 1.59 0 0 0 2.962.22l3.628-7.74 4.723 2.214zm13.976-18.245h-4.06l-6.32-2.963a1.52 1.52 0 0 1 1.474-1.152h13.068a4.17 4.17 0 0 1-4.162 4.115"/><path fill="#000" d="m65.893 19.81-3.88-1.194-2.334-3.32a1.59 1.59 0 0 0-2.601 0l-2.335 3.32-3.879 1.195a1.59 1.59 0 0 0-.803 2.473l2.435 3.246-.062 4.059a1.59 1.59 0 0 0 2.104 1.529l3.84-1.314 3.84 1.314a1.59 1.59 0 0 0 2.105-1.53l-.063-4.058 2.436-3.246a1.59 1.59 0 0 0-.803-2.473m-4.502 4.247a1.6 1.6 0 0 0-.318.979l.036 2.341-2.216-.758a1.6 1.6 0 0 0-1.03 0l-2.215.758.036-2.341a1.6 1.6 0 0 0-.318-.979l-1.405-1.873 2.238-.69a1.6 1.6 0 0 0 .832-.604l1.347-1.916 1.347 1.916c.203.288.496.501.833.605l2.238.689z"/><path fill="#000" d="M68.074 6.816h-1.06v-.527a1.59 1.59 0 0 0-3.18 0v.527h-3.866v-.527a1.59 1.59 0 0 0-3.18 0v.527h-3.866v-.527a1.59 1.59 0 0 0-3.18 0v.527h-1.06a5.933 5.933 0 0 0-5.925 5.926v18.895a5.933 5.933 0 0 0 5.926 5.926h19.391A5.933 5.933 0 0 0 74 31.637V12.742a5.933 5.933 0 0 0-5.926-5.926m2.746 24.82a2.75 2.75 0 0 1-2.746 2.747H48.683a2.75 2.75 0 0 1-2.747-2.746V12.742a2.75 2.75 0 0 1 2.746-2.746h1.06v.527a1.59 1.59 0 1 0 3.18 0v-.527h3.867v.527a1.59 1.59 0 1 0 3.18 0v-.527h3.866v.527a1.59 1.59 0 1 0 3.18 0v-.527h1.06a2.75 2.75 0 0 1 2.745 2.746z"/></svg>
